X: 2159
Q: "Strathspey."
M: C
L: 1/8
K: D
ug |\
(f<a)ud>uc vB>vduA>uG | F>Ad>f vf<ee>ug |\
(f<a) d>c B>dA>G | (3FAd (3cde f<d d :|
|: uB |\
vA<D F>uD vA>vDud>uB | vA<DF>uD (E<A)uA,>uB |\


